X:1
T:Beautiful Bethlehem Bells
T:Charles Edward Pollock
T:Beautiful Bethlehem Bells
T:Public Domain
T:Public Domain
T:Public Domain
C:Charles Edward Pollock
Z:Public Domain
%%score ( 1 2 ) ( 3 4 )
L:1/8
M:6/8
K:Ab
V:1 treble 
V:2 treble 
V:3 bass 
V:4 bass 
V:1
 ([CE]/[CE]/) | [Ec][DB][CA] [A,C][B,D][CE] | [DF]3 [CE]2 ([CE]/[CE]/) | %3
w: 1.~A- *|bove all the roar of the|ci- ties, And *|
w: 2.~Far *|off in a land that is|love- ly, For~the *|
w: 3.~They *|rang o’er the hills and the|val- leys, They *|
w: 4.~For *|they sing of a love that|is death- less, *|
 [EA][EG][EA] [EB][EA][EB] | [Ec]3- [Ec]2 [Ec]/[Ec]/ | [Fd][Fd][Fd] [DF][FA][Fd] | %6
w: o- ver the hills and the|dells, * With a|mes- sage of peace to the|
w: ten- der, sweet sto- ry it|tells, * In the|light of a glo- ri- ous|
w: sum- moned the glad world that|day, * From the|re- gions of night to the|
w: A ~ love that still tri-|umphs * in loss;|They sing of the love that|
 [Ec]3 [CA]2 [Ec]/[Ec]/ | [EB][EG][GB] [FA][EG][=DF] | E3- E2 (E/E/) | [EB][EB][EB] [EG][EA][EB] | %10
w: na- tions, Ring the|beau- ti- ful Beth- le- hem|bells, * Bringing *|souls that are sigh- ing In|
w: morn- ing, Rang the|beau- ti- ful Beth- le- hem|bells; * And *|hearts of cre- a- tion An|
w: man- ger, Where the|beau- ti- ful Child Je- sus|lay; * And~for- *|ev- er and ev- er A|
w: is lead- ing The|world to the Cal- va- ry|cross. * Ring *|sound of the ci- ties, Ring|
 [EA]3 [CE]2 [CA] | [Ec][Ec][Ec] [Ec][EB][=DA] | [EB]3- [EB]2 [Ge]/[Ge]/ | %13
w: ho- vels where|po- ver- ty dwells— There is|life, * there is|
w: an- them ex-|ult- ing- ly swells At that|mem- * o- ry|
w: won- der- ful|mel- o- dy dwells In the|ten- * der, sweet|
w: sweet o’er the|hills and the dells, A- nd|touch * us with|
 [Ge][A=d][Ae] [Ec][EA][EA] | [FA]3 [Fd]2 [Fd]/[Fd]/ | [Ec][DB][CA] [EG][EA][EB] | [EA]6 || %17
w: life for the dy- ing In|the beau- ti- ful|Beth- le- hem bells. * *||
w: sweet of the ring- ing Of|the beau- ti- ful|Beth- le- hem bells. Beau- ti-|ful|
w: ring- ing and sing- ing Of|the beau- ti- ful|Beth- le- hem bells. * *||
w: ten- der- est pi- ties, Oh,|the beau- ti- ful|Beth- le- hem bells. * *||
"^Refrain" [EB][EG][GB] [FA][EG][=DF] | E3- E2 z | [Ec]3- [Ec][=D=B][Ec] | [Ae]3- [Ae]2 z | %21
w: ||||
w: Beth- le- hem bells; Beau- ti-|ful *|Beau- * ti- ful|bells, *|
w: ||||
w: ||||
 [CA]3- [CA][EB][Ec] | [Fd]3- [Fd]2 z | [Ec][DB][CA] [B,G][CA][DB] | (FED [CA]2) |] %25
w: ||||
w: Beau- * ti- ful|Beth- *|le- hem bells. * * *||
w: ||||
w: ||||
V:2
 x | x6 | x6 | x6 | x6 | x6 | x6 | x6 | E3- E2 E/E/ | x6 | x6 | x6 | x6 | x6 | x6 | x6 | x6 || x6 | %18
w: ||||||||joy * to the||||||||||
w: ||||||||still * in the||||||||||
w: ||||||||ev- * er and||||||||||
w: ||||||||sweet * o’er the||||||||||
 E3- E2 x | x6 | x6 | x6 | x6 | x6 | A3- x2 |] %25
w: |||||||
w: bells, *|||||||
w: |||||||
w: |||||||
V:3
 ([A,,A,]/[A,,A,]/) | [A,,A,][A,,A,][A,,A,] [A,,E,][A,,E,][A,,A,] | %2
w: ~ *|~ ~ ~ ~ ~ ~|
 [A,,A,]3 [A,,A,]2 ([A,,A,]/[A,,A,]/) | [A,,C][B,,B,][C,A,] [E,G,][E,F,][E,G,] | A,3- A,2 A,/A,/ | %5
w: ~ ~ ~ *|~ ~ ~ ~ ~ ~|~ * ~ ~|
 [D,A,][D,A,][D,A,] [D,A,][D,A,][D,A,] | [A,,A,]3 [A,,E,]2 [A,,A,]/[A,,A,]/ | %7
w: ~ ~ ~ ~ ~ ~|~ ~ ~ ~|
 [B,,G,][B,,B,][B,,B,] [B,,B,][B,,B,][B,,B,] | [E,G,]3- [E,G,]2 ([E,G,]/[E,G,]/) | %9
w: ~ ~ ~ ~ ~ ~|~ * ~ *|
 [E,G,][E,G,][E,G,] [E,B,][E,C][E,D] | [A,,C]3 [A,,A,]2 [A,,A,] | A,A,A, A,[G,B,][F,B,] | %12
w: ~ ~ ~ ~ ~ ~|~ ~ ~|~ ~ ~ ~ ~ ~|
 [E,G,]3- [E,G,]2 [E,B,]/[E,B,]/ | [A,C][A,=B,][A,C] A,[C,A,][C,A,] | %14
w: ~ * ~ ~|~ ~ ~ ~ ~ ~|
 [D,A,]3 [D,A,]2 [D,A,]/[D,A,]/ | [E,A,][E,G,][E,A,] [E,B,][E,C][E,D] | [A,,C]6 || %17
w: ~ ~ ~ ~|~ ~ ~ ~ ~ ~|Beau-|
 [B,,G,][B,,B,][B,,B,] [B,,B,][B,,B,][B,,A,] | [E,G,]3- [E,G,]2 z | A,A,A, A,A,A, | %20
w: ti- ful, beau- ti- ful, beau-|ti- *|ful bells, Beau- ti- ful, beau-|
 [A,,C][C,C][E,C] [A,C]2 z | [F,A,][F,A,][F,A,] [F,A,][E,G,]A, | [D,A,][D,A,][D,A,] [D,A,]2 z | %23
w: Beau- ti- ful, beau-|ti- ful, Beth- le- hem bells,||
 [E,A,][E,G,][E,A,] [E,B,][E,A,][E,G,] | A,G,F, [A,,E,]2 |] %25
w: ||
V:4
 x | x6 | x6 | x6 | A,3- A,2 A,/A,/ | x6 | x6 | x6 | x6 | x6 | x6 | A,A,A, A, x2 | x6 | x3 A, x2 | %14
w: ||||~ * ~ ~|||||||~ ~ ~ ~||~|
 x6 | x6 | x6 || x6 | x6 | A,A,A, A,A,A, | x6 | x5 A, | x6 | x6 | A,,3- x2 |] %25
w: |||||ti- ful, beau- ti- ful bells,||||||

